X: 27026
T: Miss Gordon Of Park
R: jig
M: 6/8
K: Fmajor
|F3 cAF|FGF d3|cAF FGA|GEC CDE|
~F3 cAF|FGF a3|gaf efd|1 cdB ABG:|2 c3 cAB||
|:c2 c gec|cdc a3|b2 g a2 f|g2 f edc|
[1~c3 gec|cdc b3|agf cde|~f3 fed:|
[2f3 cAc|dBc def|cba gfe|fcA ~F3||

